X:1
T:Pretty Little Liza
C:Paul Rosen
S:Copyright 2005, Paul Rosen
M:4/4
L:1/8
Q:C4=110
R:old time
K:Am
"Am"A2AA c2dd|e2eg e2dc|A2AA c2dd|e2cc A2cc|"G"B2BB B2BB|
B2BB B2BB|"Am"A2AA c2dd|e2eg e2c2|"D"d2dd d2dd|d2dd d2cd|
"Am"e2cc A2c2|"G"BAG2 BAG2|"Am"A2AA A2AA|A2AA A2AA|
|:"Am"e4 a3e|"G"g2d2- d2eg|"Am"a2aa ged2|"Em"e2ee e2ee|
"Am"e4 a3e|"G"g2d2- d2Bc|d2e2 dcB2|"Am"A2AA A2AA:|
